X: 21636
T: Killavil, The
R: jig
M: 6/8
K: Edorian
A2|BEE BEE|Bdf edB/>B/|BAF FEF|DFA dBA|
BEE BEE|Bdf edB/>B/|BAF dAF|FED EFA|
BAF [EB,]EE|Bdf edB/>B/|BAF FEF|DFA Ddc|
BEE BEE|Bdf edB|BAF dAF|FED E2A||
Bef g/g/g e|faf edB/>B/|BAF FEF|DFA dBA|
Bef g/g/g e|fdd edB|Adc BAF|FED EAA|
Bef =cgg|Bff edB/>B/|BAF FEF|DFA dBA|
Bef g/g/g e|faf edB|AdB AFF|FED EFA||
BAF [EB,]EE|Bdf edB/>B/|BAF FEF|DFA dBA|
BEE BEE|Bdf edB/>B/|BAF dAF|FED EFA|
BEE BEE|Bdf edB|BdB AFE|DFA Ddc|
BEE BEE|Bdf edB/>B/|BAF dBA|AFE|E2A||
Bef g/g/ge|fdd edB|B/B/AF FEF|DFA dBA|
Bef gge|faf edB/>B/|BAF dAF|FED EAA|
Bef =cgg|faf edB|BdB AFE|DFA Adc|
Bef =cgg|Bff edB|Adc BAF|FED E3||

